src/icons/git-commit.svg

<svg width="16" height="16" viewBox="0 0 16 16" fill="none" xmlns="http://www.w3.org/2000/svg">
<path d="M10.9788 5C10.443 4.45199 9.73865 4.09982 8.97876 4V0H7.97876V4C7.16572 4.12245 6.42174 4.52718 5.87729 5.14331C5.33284 5.75944 5.02267 6.54757 5.00119 7.36951C4.97972 8.19144 5.24832 8.99471 5.75986 9.63843C6.2714 10.2821 6.99323 10.7253 7.79877 10.89H7.97876V14.89H8.97876V10.89C9.26824 10.8535 9.55107 10.7761 9.81876 10.66C10.4607 10.399 11.0082 9.94912 11.3888 9.37C11.772 8.79545 11.9772 8.12068 11.9788 7.43005C11.9779 6.52007 11.6187 5.64698 10.9788 5ZM10.2788 9.23999C9.80838 9.70763 9.17204 9.97006 8.50876 9.96997C8.01463 9.9703 7.53148 9.82427 7.12034 9.55017C6.70919 9.27608 6.38851 8.8863 6.19877 8.43005C6.05515 8.08876 5.98945 7.71974 6.00647 7.34985C6.02349 6.97997 6.12281 6.61853 6.29715 6.29187C6.4715 5.96521 6.71649 5.68144 7.01432 5.46143C7.31214 5.24141 7.6553 5.09067 8.01877 5.02002C8.18177 5.00528 8.34576 5.00528 8.50876 5.02002C8.85172 5.01265 9.19241 5.07732 9.50876 5.20996C9.96501 5.39971 10.3548 5.72045 10.6289 6.13159C10.903 6.54273 11.0491 7.02589 11.0488 7.52002C11.0371 7.85 10.9604 8.17444 10.8231 8.47473C10.6858 8.77503 10.4907 9.04528 10.2488 9.27002L10.2788 9.23999Z" fill="white"/>
</svg>

<svg width="16" height="16" xmlns="http://www.w3.org/2000/svg"><path d="M10.979 5a3.42 3.42 0 0 0-2-1V0h-1v4a3.5 3.5 0 0 0-.18 6.89h.18v4h1v-4a3.08 3.08 0 0 0 .84-.23 3.42 3.42 0 0 0 1.57-1.29 3.46 3.46 0 0 0-.41-4.37zm-.7 4.24a2.51 2.51 0 0 1-3.159.31 2.5 2.5 0 0 1-.92-1.12 2.49 2.49 0 0 1 1.82-3.41 2.72 2.72 0 0 1 .49 0 2.5 2.5 0 0 1 2.54 2.5 2.51 2.51 0 0 1-.8 1.75l.03-.03z"/></svg>
